X:309
T: Rakes of Kilkenny
N: O'Farrell's Pocket Companion v.4 (Sky ed. p.137)
N: "Irish"
M: 9/8
L: 1/8
R: slip jig
Q: 320
K: D
AAA dfd cec| AAA dfd fga| AAA dfd cec| BGG gfe dBG :|
aga f/g/af g2e| aga f/g/af ecA| aga f/g/af g2d| BGG gfe dBG :|
